usr/share/icons/biglinux-icons-material-dark/symbolic/actions/object-straighten-symbolic.svg

<svg version="1.1" viewBox="0 0 16 16" xmlns="http://www.w3.org/2000/svg">
 <defs>
  <style id="current-color-scheme" type="text/css">.ColorScheme-Text {
        color:#dedede;
      }</style>
 </defs>
 <path class="ColorScheme-Text" d="m1 8v1h1v-1zm2 0v1h1v-1zm2 0v1h1v-1zm2 0v1h1v-1zm2 0v1h1v-1zm2 0v1h1v-1zm2 0v1h1v-1zm2 0v1h1v-1z" color="#dedede" fill="currentColor"/>
 <path d="m10.711 1.1035c-0.13286 0.0081079-0.26661 0.03056-0.40039 0.066406l-7.7266 2.0703c-1.0702 0.28677-1.7008 1.379-1.4141 2.4492l0.35156 1.3105h1.0332l-0.41992-1.5703c-0.14339-0.53512 0.17191-1.0812 0.70703-1.2246l7.7285-2.0703c0.53512-0.14339 1.0812 0.17191 1.2246 0.70703l1.1133 4.1582h1.0352l-1.1836-4.416c-0.25093-0.93647-1.1188-1.5372-2.0488-1.4805zm-8.3867 8.8965 0.91602 3.416c0.28677 1.0702 1.379 1.7008 2.4492 1.4141l7.7266-2.0703c1.0702-0.28677 1.7008-1.379 1.4141-2.4492l-0.083984-0.31055h-1.0332l0.15234 0.57031c0.14339 0.53512-0.17191 1.0812-0.70703 1.2246l-7.7285 2.0703c-0.53512 0.14339-1.0812-0.17191-1.2246-0.70703l-0.8457-3.1582h-1.0352z" fill="#dedede"/>
</svg>

<svg xmlns="http://www.w3.org/2000/svg" viewBox="0 0 16 16">
<defs>
<style id="current-color-scheme" type="text/css">
.ColorScheme-Contrast{color:#dedede}
</style>
</defs>
<path fill="currentColor" d="M1 8v1h1V8zm2 0v1h1V8zm2 0v1h1V8zm2 0v1h1V8zm2 0v1h1V8zm2 0v1h1V8zm2 0v1h1V8zm2 0v1h1V8z" class="ColorScheme-Contrast" color="#dedede"/>
<path fill="#dedede" d="M10.711 1.104q-.2.012-.4.066L2.584 3.24A1.995 1.995 0 0 0 1.17 5.69L1.52 7h1.034l-.42-1.57a1 1 0 0 1 .707-1.225l7.728-2.07a1 1 0 0 1 1.225.707L12.908 7h1.035L12.76 2.584a1.996 1.996 0 0 0-2.049-1.48M2.324 10l.916 3.416a1.995 1.995 0 0 0 2.45 1.414l7.726-2.07a1.995 1.995 0 0 0 1.414-2.45l-.084-.31h-1.033l.152.57a1 1 0 0 1-.707 1.225l-7.728 2.07a1 1 0 0 1-1.225-.707L3.36 10z"/>
</svg>
